care/src/image/Frame1.svg

<svg width="99" height="90" viewBox="0 0 99 90" fill="none" xmlns="http://www.w3.org/2000/svg">
<g clip-path="url(#clip0_1_155)">
<path d="M60.2305 43.3151L50.5043 51.9802L9.43175 88.5661C8.35347 89.5289 6.97023 90.0103 5.58699 90.0103C4.07304 90.0103 2.5591 89.4367 1.45904 88.2998C-0.708403 86.0669 -0.425219 82.5743 2.06897 80.6692L50.5043 43.8272L55.8412 39.7712L60.2305 43.3151Z" fill="url(#paint0_linear_1_155)"/>
<path d="M50.0795 52.4206L40.5058 60.9423L39.6235 52.185L44.8624 48.2007L50.0795 52.4206Z" fill="#3A81D6" fill-opacity="0.8"/>
<path d="M98.5475 29.9078C98.5475 46.4288 84.3011 59.8259 66.7438 59.8259C55.6778 59.8259 45.9298 54.5101 40.2334 46.4391C36.8897 41.7071 34.9401 36.0225 34.9401 29.9078C34.9401 13.3868 49.1864 0 66.7438 0C74.6729 0 81.9159 2.72448 87.4815 7.23114C94.2561 12.7211 98.5475 20.8433 98.5475 29.9078Z" fill="url(#paint1_linear_1_155)"/>
<path d="M66.7438 53.2093C80.4286 53.2093 91.5223 42.7768 91.5223 29.9078C91.5223 17.0387 80.4286 6.60632 66.7438 6.60632C53.059 6.60632 41.9652 17.0387 41.9652 29.9078C41.9652 42.7768 53.059 53.2093 66.7438 53.2093Z" fill="white"/>
<path opacity="0.06" d="M98.5474 29.9078C98.5474 46.4288 84.3011 59.8259 66.7437 59.8259C55.6778 59.8259 45.9297 54.5101 40.2334 46.4391C76.0997 43.6941 85.5537 15.1178 87.4924 7.23114C94.2561 12.7211 98.5474 20.8433 98.5474 29.9078Z" fill="#1A6FB5" fill-opacity="0.5"/>
<path d="M66.7442 29.959C69.6196 29.959 71.9504 27.7672 71.9504 25.0632C71.9504 22.3592 69.6196 20.1673 66.7442 20.1673C63.8688 20.1673 61.538 22.3592 61.538 25.0632C61.538 27.7672 63.8579 29.959 66.7442 29.959ZM66.7442 32.407C63.2698 32.407 56.3318 34.0458 56.3318 37.3028V38.5319C56.3318 39.2079 56.9199 39.761 57.6388 39.761H75.8715C76.5903 39.761 77.1785 39.2079 77.1785 38.5319V37.3028C77.1567 34.056 70.2187 32.407 66.7442 32.407Z" fill="url(#paint2_linear_1_155)"/>
</g>
<defs>
<linearGradient id="paint0_linear_1_155" x1="6.07961" y1="84.3265" x2="54.5569" y2="37.4626" gradientUnits="userSpaceOnUse">
<stop stop-color="#67C3F3"/>
<stop offset="1" stop-color="#5A98F2"/>
</linearGradient>
<linearGradient id="paint1_linear_1_155" x1="53.5896" y1="2.11336" x2="75.3045" y2="54.0245" gradientUnits="userSpaceOnUse">
<stop stop-color="#6888C8"/>
<stop offset="1" stop-color="#5A98F2"/>
</linearGradient>
<linearGradient id="paint2_linear_1_155" x1="59.2164" y1="28.3947" x2="77.6114" y2="37.9353" gradientUnits="userSpaceOnUse">
<stop stop-color="#B0F4FF"/>
<stop offset="0.071077" stop-color="#A6F1FF"/>
<stop offset="0.2937" stop-color="#8BE8FD"/>
<stop offset="0.5209" stop-color="#78E1FD"/>
<stop offset="0.7536" stop-color="#6DDDFC"/>
<stop offset="1" stop-color="#69DCFC"/>
</linearGradient>
<clipPath id="clip0_1_155">
<rect width="98.5479" height="90" fill="white"/>
</clipPath>
</defs>
</svg>

<svg width="99" height="90" fill="none" xmlns="http://www.w3.org/2000/svg"><g clip-path="url(#a)"><path d="m60.23 43.315-9.726 8.665L9.432 88.566a5.764 5.764 0 0 1-3.845 1.444c-1.514 0-3.028-.573-4.128-1.71-2.167-2.233-1.884-5.726.61-7.63l48.435-36.843 5.337-4.056 4.39 3.544z" fill="url(#b)"/><path d="m50.08 52.42-9.574 8.522-.883-8.757 5.24-3.984 5.217 4.22z" fill="#3A81D6" fill-opacity=".8"/><path d="M98.547 29.908c0 16.52-14.246 29.918-31.803 29.918-11.066 0-20.814-5.316-26.51-13.387-3.344-4.732-5.294-10.416-5.294-16.531C34.94 13.387 49.186 0 66.744 0c7.929 0 15.172 2.724 20.737 7.231 6.775 5.49 11.067 13.612 11.067 22.677z" fill="url(#c)"/><path d="M66.744 53.21c13.685 0 24.778-10.433 24.778-23.302 0-12.87-11.093-23.302-24.778-23.302-13.685 0-24.779 10.433-24.779 23.302S53.06 53.209 66.744 53.209z" fill="#fff"/><path opacity=".06" d="M98.547 29.908c0 16.52-14.246 29.918-31.803 29.918-11.066 0-20.814-5.316-26.51-13.387C76.1 43.694 85.553 15.118 87.491 7.231c6.764 5.49 11.055 13.612 11.055 22.677z" fill="#1A6FB5" fill-opacity=".5"/><path d="M66.744 29.959c2.876 0 5.206-2.192 5.206-4.896 0-2.704-2.33-4.896-5.206-4.896-2.875 0-5.206 2.192-5.206 4.896 0 2.704 2.32 4.896 5.206 4.896zm0 2.448c-3.474 0-10.412 1.639-10.412 4.896v1.229c0 .676.588 1.229 1.307 1.229H75.87c.72 0 1.308-.553 1.308-1.23v-1.228c-.022-3.247-6.96-4.896-10.435-4.896z" fill="url(#d)"/></g><defs><linearGradient id="b" x1="6.08" y1="84.326" x2="54.557" y2="37.463" gradientUnits="userSpaceOnUse"><stop stop-color="#67C3F3"/><stop offset="1" stop-color="#5A98F2"/></linearGradient><linearGradient id="c" x1="53.59" y1="2.113" x2="75.305" y2="54.025" gradientUnits="userSpaceOnUse"><stop stop-color="#6888C8"/><stop offset="1" stop-color="#5A98F2"/></linearGradient><linearGradient id="d" x1="59.216" y1="28.395" x2="77.611" y2="37.935" gradientUnits="userSpaceOnUse"><stop stop-color="#B0F4FF"/><stop offset=".071" stop-color="#A6F1FF"/><stop offset=".294" stop-color="#8BE8FD"/><stop offset=".521" stop-color="#78E1FD"/><stop offset=".754" stop-color="#6DDDFC"/><stop offset="1" stop-color="#69DCFC"/></linearGradient><clipPath id="a"><path fill="#fff" d="M0 0h98.548v90H0z"/></clipPath></defs></svg>
